X:354
T:Tempest
Z: id:dc-reel-331
M:C
L:1/8
K:D Dorian
d2cA GEE2|DEcE dEcE|d2cA GEE2|EDCD EDD2|!
d2cA GEE2|DEcE dEcE|DEFA GEcE|EDCD EDD2:|!
d2ed cAGc|AdcA GEE2|d2ed cdef|edcA d2ag|!
eage dcAB|cAGc AEGE|DEFA GEcE|EDCD EDD2:|!